X: 42262
T: Wearing Of The Green, The
R: hornpipe
M: 4/4
K: Dmajor
DE|FFFE FAAF|FEEF E3 A|BGdc BAFD|EDDE D2 DE|
FFFE FAAF|FEEF E3 A|BGdc BAFD|EDDE D2 dc||
BAAF AFDE|FFFE F2 dc|BAAF AFDE|FEEF E2 DE|
FFFE FAAF|FEEF E3 A|BGdc BAFD|EDDE D4||

